assets/svg/unboarding.svg

<svg width="24" height="24" viewBox="0 0 24 24" fill="none" xmlns="http://www.w3.org/2000/svg">
<mask id="mask0_3_123" style="mask-type:alpha" maskUnits="userSpaceOnUse" x="0" y="0" width="24" height="24">
<rect width="24" height="24" fill="#D9D9D9"/>
</mask>
<g mask="url(#mask0_3_123)">
<path d="M7 23L9.8 8.9L8 9.6V13H6V8.3L11.05 6.15C11.2833 6.05 11.5293 5.99167 11.788 5.975C12.046 5.95833 12.2917 5.99167 12.525 6.075C12.7583 6.15833 12.9793 6.275 13.188 6.425C13.396 6.575 13.5667 6.76667 13.7 7L14.7 8.6C15.1333 9.3 15.7207 9.875 16.462 10.325C17.204 10.775 18.05 11 19 11V13C17.8333 13 16.7917 12.7583 15.875 12.275C14.9583 11.7917 14.175 11.175 13.525 10.425L12.9 13.5L15 15.5V23H13V16.5L10.9 14.9L9.1 23H7ZM13.5 5.5C12.95 5.5 12.4793 5.304 12.088 4.912C11.696 4.52067 11.5 4.05 11.5 3.5C11.5 2.95 11.696 2.479 12.088 2.087C12.4793 1.69567 12.95 1.5 13.5 1.5C14.05 1.5 14.521 1.69567 14.913 2.087C15.3043 2.479 15.5 2.95 15.5 3.5C15.5 4.05 15.3043 4.52067 14.913 4.912C14.521 5.304 14.05 5.5 13.5 5.5Z" fill="#081B31"/>
</g>
</svg>

<svg width="24" height="24" fill="none" xmlns="http://www.w3.org/2000/svg">
    <mask id="a" style="mask-type:alpha" maskUnits="userSpaceOnUse" x="0" y="0" width="24" height="24">
        <path fill="#D9D9D9" d="M0 0h24v24H0z"/>
    </mask>
    <g mask="url(#a)">
        <path d="M7 23 9.8 8.9 8 9.6V13H6V8.3l5.05-2.15c.233-.1.48-.158.738-.175a1.82 1.82 0 0 1 .737.1c.233.083.454.2.663.35.208.15.379.342.512.575l1 1.6c.433.7 1.02 1.275 1.762 1.725.742.45 1.588.675 2.538.675v2c-1.167 0-2.208-.242-3.125-.725a8.03 8.03 0 0 1-2.35-1.85L12.9 13.5l2.1 2V23h-2v-6.5l-2.1-1.6L9.1 23H7Zm6.5-17.5c-.55 0-1.02-.196-1.412-.588A1.923 1.923 0 0 1 11.5 3.5c0-.55.196-1.021.588-1.413A1.925 1.925 0 0 1 13.5 1.5c.55 0 1.021.196 1.413.587.391.392.587.863.587 1.413s-.196 1.02-.587 1.412A1.927 1.927 0 0 1 13.5 5.5Z" fill="#081B31"/>
    </g>
</svg>
